picto/tracks-55-de-small-framed.svg

<svg class="color-immutable" width="30" height="30" viewBox="0 0 30 30" fill="none" xmlns="http://www.w3.org/2000/svg"><path d="M30 0H0V30H30V0Z" fill="#2D327D"/><path d="M25.5 3C26.325 3 27 3.675 27 4.5V25.5C27 26.325 26.325 27 25.5 27H4.5C3.675 27 3 26.325 3 25.5V4.5C3 3.675 3.675 3 4.5 3H25.5ZM25.5 2.625H4.5C3.46613 2.625 2.625 3.46613 2.625 4.5V25.5C2.625 26.5339 3.46613 27.375 4.5 27.375H25.5C26.5339 27.375 27.375 26.5339 27.375 25.5V4.5C27.375 3.46613 26.5339 2.625 25.5 2.625Z" fill="white"/><path d="M13.7119 12.7585V14.758H9.18221L8.69771 17.2881C9.24109 16.714 9.93589 16.4268 10.7818 16.4268C11.6124 16.4268 12.3353 16.6499 12.9505 17.0959C13.863 17.7676 14.3194 18.7878 14.3194 20.1567C14.3194 21.5 13.8323 22.5638 12.8583 23.3483C12.0994 23.9635 11.192 24.2711 10.1358 24.2711C8.94633 24.2711 7.99023 23.952 7.26731 23.3136C6.54438 22.6753 6.16241 21.8128 6.12146 20.7258H8.32863C8.36448 21.1207 8.49266 21.4564 8.71316 21.7333C9.05659 22.1692 9.53343 22.387 10.1436 22.387C10.7331 22.387 11.1997 22.1743 11.5432 21.7486C11.8764 21.3334 12.0431 20.8284 12.0431 20.2337C12.0431 19.5877 11.8687 19.0712 11.5201 18.684C11.1714 18.297 10.7075 18.1034 10.1281 18.1034C9.42056 18.1034 8.86939 18.4214 8.47466 19.057L6.46743 19.0263L7.53641 12.7586H13.7119V12.7585Z" fill="white"/><path d="M23.2588 12.7585V14.758H18.7291L18.2446 17.2881C18.788 16.714 19.4828 16.4268 20.3287 16.4268C21.1592 16.4268 21.8822 16.6499 22.4974 17.0959C23.4099 17.7676 23.8663 18.7878 23.8663 20.1567C23.8663 21.5 23.3792 22.5638 22.4051 23.3483C21.6463 23.9635 20.7388 24.2711 19.6827 24.2711C18.4932 24.2711 17.5371 23.952 16.8142 23.3136C16.0913 22.6753 15.7093 21.8128 15.6683 20.7258H17.8755C17.9114 21.1207 18.0395 21.4564 18.26 21.7333C18.6035 22.1692 19.0803 22.387 19.6904 22.387C20.2799 22.387 20.7465 22.1743 21.0901 21.7486C21.4232 21.3334 21.59 20.8284 21.59 20.2337C21.59 19.5877 21.4156 19.0712 21.067 18.684C20.7183 18.297 20.2543 18.1034 19.675 18.1034C18.9674 18.1034 18.4163 18.4214 18.0215 19.057L16.0143 19.0263L17.0833 12.7586H23.2588V12.7585Z" fill="white"/><path d="M8.0955 7.03665V8.24865H7.7817L7.7325 7.99178C7.56637 8.19893 7.34235 8.3025 7.06035 8.3025C6.71685 8.3025 6.44565 8.17538 6.24667 7.92105C6.0816 7.7088 5.99902 7.44683 5.99902 7.13513C5.99902 6.78135 6.10672 6.4917 6.32205 6.2661C6.52402 6.0528 6.78502 5.94615 7.1049 5.94615C7.40025 5.94615 7.6407 6.04148 7.82625 6.2322C7.9647 6.37575 8.04412 6.54495 8.06467 6.7398H7.5894C7.5648 6.61883 7.50967 6.52448 7.42402 6.45683C7.33837 6.38918 7.23 6.35528 7.09875 6.35528C6.89985 6.35528 6.74602 6.43215 6.63735 6.58598C6.54202 6.7203 6.49432 6.9018 6.49432 7.13048C6.49432 7.35398 6.53895 7.53143 6.62812 7.66268C6.73785 7.82363 6.89985 7.90418 7.11412 7.90418C7.26892 7.90418 7.39582 7.85753 7.49482 7.76423C7.59382 7.67093 7.6458 7.54838 7.65097 7.39665H7.1511V7.03673H8.0955V7.03665Z" fill="white"/><path d="M8.90306 6V8.24865H8.45703V6H8.90306Z" fill="white"/><path d="M10.7749 7.72575C10.7513 7.8201 10.7087 7.90875 10.6472 7.99185C10.4995 8.19383 10.2873 8.29485 10.0105 8.29485C9.76026 8.29485 9.55978 8.21588 9.40903 8.058C9.33523 7.98113 9.27883 7.88828 9.23983 7.7796C9.19776 7.66373 9.17676 7.54275 9.17676 7.4166C9.17676 7.17255 9.24703 6.9675 9.38751 6.80138C9.54441 6.61575 9.74743 6.52298 9.99658 6.52298C10.1976 6.52298 10.3688 6.585 10.5103 6.70905C10.6119 6.79823 10.6857 6.90825 10.7318 7.03898C10.7779 7.1697 10.801 7.33403 10.801 7.53196H9.63058C9.63471 7.614 9.64753 7.68218 9.66906 7.73655C9.72958 7.88318 9.84441 7.95653 10.0136 7.95653C10.0966 7.95653 10.1644 7.9383 10.2166 7.90193C10.2689 7.86555 10.312 7.80683 10.3459 7.72583H10.7749V7.72575ZM10.3457 7.23203C10.3375 7.15103 10.3191 7.08383 10.2904 7.0305C10.2616 6.97823 10.2209 6.93668 10.1681 6.90593C10.1153 6.87518 10.0576 6.8598 9.99508 6.8598C9.89563 6.8598 9.81358 6.8931 9.74901 6.95978C9.68443 7.02645 9.64596 7.1172 9.63366 7.23203H10.3457Z" fill="white"/><path d="M11.5239 6V6.40147H11.0779V6H11.5239ZM11.5239 6.57217V8.24873H11.0779V6.57217H11.5239Z" fill="white"/><path d="M13.2481 7.05975H12.8298C12.8216 7.0023 12.8057 6.95873 12.7821 6.92903C12.736 6.86955 12.6503 6.83985 12.5252 6.83985C12.4462 6.83985 12.3853 6.85418 12.3422 6.88291C12.2992 6.91163 12.2776 6.95213 12.2776 7.0044C12.2776 7.05975 12.3015 7.10025 12.3492 7.1259C12.3969 7.15155 12.5058 7.18178 12.676 7.21665C12.8924 7.26075 13.0483 7.31558 13.1436 7.3812C13.2564 7.45808 13.3128 7.57501 13.3128 7.7319C13.3128 7.91138 13.243 8.05028 13.1036 8.14875C12.9662 8.24618 12.7842 8.29485 12.5576 8.29485C12.2767 8.29485 12.0706 8.22563 11.9393 8.08718C11.8511 7.99283 11.8019 7.86413 11.7916 7.70115H12.2192C12.2274 7.77705 12.2469 7.83443 12.2776 7.87343C12.3351 7.94318 12.4299 7.97805 12.5622 7.97805C12.6544 7.97805 12.7278 7.9593 12.7822 7.92188C12.8365 7.88445 12.8637 7.83398 12.8637 7.77038C12.8637 7.71293 12.8404 7.67018 12.7937 7.64198C12.7471 7.61378 12.6484 7.58228 12.4976 7.54741C12.352 7.51358 12.249 7.48718 12.1885 7.4682C12.1279 7.44923 12.0736 7.42643 12.0254 7.39973C11.9629 7.3638 11.9142 7.31363 11.8793 7.24898C11.8444 7.18433 11.827 7.11263 11.827 7.03365C11.827 6.85935 11.8993 6.72653 12.0439 6.63525C12.1618 6.5604 12.3259 6.52298 12.5361 6.52298C12.814 6.52298 13.0134 6.5937 13.1344 6.73523C13.2 6.8121 13.2379 6.92025 13.2481 7.05975Z" fill="white"/></svg>

<svg class="color-immutable" width="30" height="30" viewBox="0 0 30 30" fill="none" xmlns="http://www.w3.org/2000/svg"><g clip-path="url(#a)"><path d="M30 0H0v30h30V0Z" fill="#2D327D"/><path d="M25.5 3c.825 0 1.5.675 1.5 1.5v21c0 .825-.675 1.5-1.5 1.5h-21c-.825 0-1.5-.675-1.5-1.5v-21C3 3.675 3.675 3 4.5 3h21Zm0-.375h-21A1.877 1.877 0 0 0 2.625 4.5v21c0 1.034.841 1.875 1.875 1.875h21a1.877 1.877 0 0 0 1.875-1.875v-21A1.877 1.877 0 0 0 25.5 2.625Z" fill="#fff"/><path d="M13.712 12.758v2h-4.53l-.484 2.53c.543-.574 1.238-.861 2.084-.861.83 0 1.553.223 2.168.669.913.672 1.37 1.692 1.37 3.06 0 1.344-.488 2.408-1.462 3.192-.759.616-1.666.923-2.722.923-1.19 0-2.146-.319-2.869-.957-.723-.639-1.105-1.501-1.146-2.588H8.33c.035.395.164.73.384 1.007.344.436.82.654 1.43.654.59 0 1.057-.213 1.4-.638.333-.416.5-.92.5-1.515 0-.646-.174-1.163-.523-1.55-.349-.387-.813-.58-1.392-.58-.707 0-1.259.317-1.653.953l-2.008-.03 1.07-6.268h6.175ZM23.259 12.758v2h-4.53l-.484 2.53c.543-.574 1.238-.861 2.084-.861.83 0 1.553.223 2.168.669.913.672 1.37 1.692 1.37 3.06 0 1.344-.488 2.408-1.462 3.192-.759.616-1.666.923-2.722.923-1.19 0-2.146-.319-2.869-.957-.723-.639-1.105-1.501-1.146-2.588h2.207c.036.395.165.73.385 1.007.343.436.82.654 1.43.654.59 0 1.056-.213 1.4-.638.333-.416.5-.92.5-1.515 0-.646-.174-1.163-.523-1.55-.349-.387-.813-.58-1.392-.58-.708 0-1.259.317-1.654.953l-2.007-.03 1.07-6.268h6.175ZM8.095 7.037v1.212h-.313l-.05-.257a.816.816 0 0 1-.672.31c-.343 0-.614-.127-.813-.38-.165-.213-.248-.475-.248-.787 0-.354.108-.643.323-.869a1.03 1.03 0 0 1 .783-.32c.295 0 .536.095.721.286a.84.84 0 0 1 .239.508h-.476a.464.464 0 0 0-.165-.283.509.509 0 0 0-.325-.102.532.532 0 0 0-.462.231c-.095.134-.143.316-.143.544 0 .224.045.401.134.533a.55.55 0 0 0 .486.241.533.533 0 0 0 .38-.14.507.507 0 0 0 .157-.367h-.5v-.36h.944ZM8.903 6v2.249h-.446V6h.446ZM10.775 7.726a.751.751 0 0 1-.128.266c-.148.202-.36.303-.636.303-.25 0-.451-.08-.602-.237a.773.773 0 0 1-.17-.278 1.055 1.055 0 0 1-.062-.363c0-.244.07-.45.21-.616a.76.76 0 0 1 .61-.278c.2 0 .372.062.513.186.102.09.176.2.222.33.046.13.069.295.069.493h-1.17a.65.65 0 0 0 .038.205c.06.146.175.22.345.22.083 0 .15-.019.203-.055a.39.39 0 0 0 .129-.176h.429Zm-.43-.494a.54.54 0 0 0-.055-.202.338.338 0 0 0-.295-.17c-.1 0-.181.033-.246.1a.446.446 0 0 0-.115.272h.712ZM11.524 6v.401h-.446V6h.446Zm0 .572V8.25h-.446V6.572h.446ZM13.248 7.06h-.418a.27.27 0 0 0-.048-.131c-.046-.06-.132-.09-.257-.09a.328.328 0 0 0-.183.044.138.138 0 0 0-.064.121c0 .056.024.096.071.122.048.026.157.056.327.09.216.045.372.1.468.165.112.077.169.194.169.35a.48.48 0 0 1-.21.418c-.137.097-.319.146-.545.146-.281 0-.487-.07-.619-.208a.601.601 0 0 1-.147-.386h.427a.335.335 0 0 0 .059.172c.057.07.152.105.284.105a.382.382 0 0 0 .22-.056.175.175 0 0 0 .082-.152.14.14 0 0 0-.07-.128 1.2 1.2 0 0 0-.296-.095 4.83 4.83 0 0 1-.31-.079.876.876 0 0 1-.163-.068.376.376 0 0 1-.146-.151.446.446 0 0 1-.052-.215c0-.175.072-.307.217-.399.118-.075.282-.112.492-.112.278 0 .477.07.598.212a.55.55 0 0 1 .114.325Z" fill="#fff"/></g><defs><clipPath id="a"><path fill="#fff" d="M0 0h30v30H0z"/></clipPath></defs></svg>
